X:1 
T:Over the Hills and Far Away
C:Traditional
Q:1/4=150
V:1
M:4/4
L:1/8    
K:G
"G" GA BA GA BA | G2 E2 "C" E2 D2 | "G" GA BA GA BG | "C" c2 A2 "D" A4 |
"G" GA BA GA BA | "C" G2 E2 c4 | "G" E2 DC D2 GB | "C" c2 A2  "D" A4 ||
"G" d3 c B2 AB | "C" G2 E2  "D" E2 D2 | "G" d3 c B2 AB | "C" c2 A2 "D" A4 |
"G" d3 c B2 AB | "C" G2 E2 c4 | "G" E2 DC D2 GB | "C" c2 A2 "D" A4 |]
   
%%textfont Times-Italic 12
%%begintext justify



arr. Alison S. 2015-10-24
%%endtext
